svgs/sharp-solid/images-user.svg

<svg xmlns="http://www.w3.org/2000/svg" viewBox="0 0 576 512"><!--! Font Awesome Pro 6.6.0 by @fontawesome - https://fontawesome.com License - https://fontawesome.com/license (Commercial License) Copyright 2024 Fonticons, Inc. --><path d="M96 32l0 352 480 0 0-352L96 32zM336 96a64 64 0 1 1 0 128 64 64 0 1 1 0-128zM440 320l-208 0 24-64 160 0 24 64zM48 120l0-24L0 96l0 24L0 456l0 24 24 0 432 0 24 0 0-48-24 0L48 432l0-312z"/></svg>

<svg xmlns="http://www.w3.org/2000/svg" viewBox="0 0 576 512"><!--! Font Awesome Pro 6.4.2 by @fontawesome - https://fontawesome.com License - https://fontawesome.com/license (Commercial License) Copyright 2023 Fonticons, Inc. --><path d="M96 32V384H576V32H96zM336 96a64 64 0 1 1 0 128 64 64 0 1 1 0-128zM440 320H232l24-64H416l24 64zM48 120V96H0v24V456v24H24 456h24V432H456 48V120z"/></svg>
